X:1
T:Anonymus 16. Jh.
T:Wol auff, wol auff
%%score [ 1 2 3 4 ]
L:1/8
Q:1/4=240
M:4/4
K:C
V:1 treble nm="Cantus" snm="Cantus"
V:2 treble nm="Altus" snm="Altus"
V:3 treble nm="Tenor" snm="Tenor"
V:4 treble nm="Bassus" snm="Bassus"
V:1
"^:" x8 ||[K:G][M:3/1][Q:1/4=720][Q:1/4=720][Q:1/4=720][Q:1/4=720] G8 G8 G8 | F12 G4 A8 | D8 G16 | %4
w: |Wol auff, wol|auff, * *|wol auff.|
[Q:1/4=240] F6 G2 A4 B8 | A4 B4 B4 x4 |[Q:1/4=240][Q:1/4=240][Q:1/4=240][Q:1/4=240] A8 z8 x4 | %7
w: Jung * * *|* * und|alt|
 z4 A6 G2 G8 | F4 G4 A4 B4 x2 | A4 G4 A6 G2 x6 | G8 F4 x4 | G8 z4 d4 | d4 d4 B4 B4 | G4 G4 B8 | %14
w: das * *|sein Got heut sel-|* * ber *||walt, der|tag der dringt, der|Vo- gel singt,|
 z4 E4 A4 A2 G2 | F2 E2 F4 D8 | z4 G4 A4 A4 | F4 B8 A6 | G2 G8 F4 x2 |"^-" x16- | x8 x6 x2 | z16 | %22
w: das al- lent *|* * hal- ben,|das al- lent-|halb in dem|* Wald er-|klingt|||
 z16 | z16 x2 | z16 x2 | z4 G4 A4 A4 x8 |[M:3/1] x24 |[M:3/1][Q:1/4=720] B12 A4 G8 | F12 G4 A8 | %29
w: |||zu we- gen||brecht, * wol|auff, * *|
 D8 G16 |[Q:1/4=240] F6 G2 A4 B8 | A4 B4 B4 x8 | A8 z8 x4 | z4 A6 G2 G8 | F4 G4 A4 B4 | %35
w: wol auff,|wol * * auff|jung * und|alt,|resch * *|und baldt, das Got|
 A4 G4 A6 G2 | G8 F4 x4 | G16 | z16 | z4 B4 A4 d4 | d4 ^c4 d8 x2 | z16 x6 | z8 z4 G4 | G4 G4 A8 | %44
w: sein heut sel- *|* ber|walt,||her- nach laß|fa- * ren,||laß|fa- ren ins|
 B8 d8 | z4 d4 B8 | G8 z4 d8 | B8 G6 A2 | B4 c2 B2 A2 G2 F4 x4 | G8 F4 G4 | d4 d4 d4 x4 | %51
w: ga- ren,|wuff, wuff,|wuff, wuff,|wuff, wuff, *|* wuff, * * * *|* * wuff,|her- nach ir|
 B4 B4 G8 | z4 G4 A4 A4 | B16 | z4 B4 B4 G4 | A4 B4 c4 c4 |"^-"[Q:1/4=720] x16 x8 |] %57
w: lie- ben Hundt,|her- nach, her-|nach,|her- nach, her-|nach ir lie- ben||
[M:4/4]"^:""^U"[Q:1/4=720] x24 |[M:3/1][Q:1/4=720]"^Secunda pars"[Q:1/4=720] B16 B8 | %59
w: |Wuff, wuff,|
[Q:1/4=240] B16 B8 |[Q:1/4=240] B8 B8 B8 |[Q:1/4=240][Q:1/4=240] B24 | z8 d8 | B4 B4 d4 d4 x8 | %64
w: wuff, wuff,|wuff, wuff, wuff,|wuff,|do|laufft der e- del|
 d6 c2 B16 | z16 | z16 x8 |[M:3/1][Q:1/4=720] B16 B8 | B16 B8 | B8 B8 B8 | B8 z4 d6 x6 | %71
w: Hirsch da- her,|||wuff, wuff,|wuff, wuff,|wuff, wuff, wuff,|wuff, du|
 c2 B6 A2 G8 | F4 G4 E8 | D4 E8 x4 | z4 E4 D6 E2 | F4 G4 E8 x2 |"^-" x16- x14 | x12 x4 x4 | %78
w: * hast * noch||* recht|gu- ter *|* * Ge-|sel.||
 z16 x4 | z16 x4 | z4 D4 D4 D4 x4 | E4 F4 G4 G4 | F4 E2 D2 d8 | z4 d8 B8 | G8 d8 x4 | B8 G6 A2 | %86
w: ||do- her, do-|her, do- her, do-|her, * * *|wuff, wuff,|wuff, wuff,|wuff, wuff, *|
 B4 c2 B2 A2 G2 F4 x12 |[M:3/1] G8 F4 x12 | %88
w: * wuff, * * * *||
[M:3/1][Q:1/4=720][Q:1/4=720][Q:1/4=720][Q:1/4=720] G16 z8 |[M:3/1][Q:1/4=720] F16 F8 | F16 F8 | %91
w: wuff,|kumbt her-|für mit|
 G16 G8 |[Q:1/4=240] F8 z4 F4 |[Q:1/4=240][Q:1/4=240][Q:1/4=240] A6 G2 F4 E4 | %94
w: gros- sem|Schall, ir|lie- * * ben\_\_|
[Q:1/4=240] D6 E2 F2 G2 A6 | G2 G8 F4 G12 | E8 D4 C4 x12 | B,2 A,2"^-" x16 | %98
w: * * * * Hundt||all. * *||
[M:4/4]"^:""^U"[Q:1/4=720][Q:1/4=720] x24 |[M:3/1][Q:1/4=720]"^Tertia pars"[Q:1/4=720] B16 B8 | %100
w: |Wuff, wuff,|
 B16 B8 |[Q:1/4=240][Q:1/4=240] B8 B8 B8 |[Q:1/4=240][Q:1/4=240] B16 | z8 G8 | d8 d8 | B4 B4 B8 | %106
w: wuff, wuff,|wuff, wuff, wuff,|wuff,|do|laufft der|e- del Hirsch,|
 G8 G8 x4 | d12 d4 x12 | d8 z4 D4 | F6 G2 A4 D4 | F6 G2 A4 B4 | A6 G2 F2 E2 A6 x6 | G2 G8 F4 x10 | %113
w: do- her,|trau- ter|Hundt, trau-|ter * Hundt, do|laufft * der e-|del * * * ~~Hirsch|* * do-|
[M:3/1][Q:1/4=720] G16 z8 |[Q:1/4=720] B8 B8 B8 |[Q:1/4=720] A16 A8 | %116
w: her,|Nun kumbt her|zu ir|
[M:3/1][Q:1/4=720][Q:1/4=720] G16 G8 | F16 z8 | d8 d8 d8 |[Q:1/4=240] B16 A8 |[Q:1/4=240] G16 E8 | %121
w: Gsel- len|all,|nun kumbt her|zu ir|Gsel- len|
[Q:1/4=240][Q:1/4=240] F8 z4 B4 | B4 B4 A4 A4 | G4 G4 F8 | z4 A4 d6 c2 | B4 A4 G4 E4 | %126
w: all, und|greyf- fet zu mit|rey- chem Schall,|mit rey- *||
 F4 A6 G2 F2 E2 x2 | D4 A4 B4 A6 | G2 G8 F4"^-" x16 |] %129
w: ||* * chem|
V:2
"^:" x8 ||[K:G][M:3/1] D8 D8 D8 | D16 D8 | D16 D8 | D4 D8 D4 x4 | D8 z8 | D8 D8 x4 | D8 z8 x4 | %8
w: |Wol auff, wol|auff, wol|auff, wol|auff.~ ~~Jung und|alt,|resch und|bald,|
 D8 D8 x2 | D8 D8 x6 | D16 |"^-" x16- | x12 x4 | z4 G4 G4 G4 | E4 E4 C4 C4 | D8 z4 D4 | %16
w: das Got|heut sel-|ber|walt,||der Tag her|dringt, der Vo- gel|singt, das|
 E4 E4 C4 C4 | D6 C2 B,2 A,2 C4 x2 | G,8 A,8 |"^-" x16- | x8 x6 x2 | z16 | z16 | z16 x2 | z16 x2 | %25
w: al- lent- halb im|Wald * * * *|er- *|klingt||||||
 z16 x8 |[M:3/1] x24 |[M:3/1] D8 D8 D8 | D16 D8 | D16 D8 | D4 D8 D4 x4 | D8 z8 x4 | D8 D8 x4 | %33
w: ||wol auff, wol|auff, wol|auff, wol|auff, jung und|alt,|resch und|
 D8 z8 x4 | D8 D8 | D8 D8 | D8 D8 | B,8 z8 | z16 | z4 G4 F4 G4 | E8 D8 x2 | z16 x6 | z8 z4 D4 | %43
w: baldt,|das sein|Got heut|sel- ber|walt,||her- nach laß|fa- ren,||laß|
 D4 E4 C4 A,4 | D8 B,8 | z4 G,4 D8 | B,8 D4 B,8 | G,8 B,6 C2 | D8 C4 D8 | z4 D4 D4 D4 | %50
w: fa- ren ins *|ga- ren,|wuff, wuff,|wuff, wuff, wuff,|wuff, wuff, *|* wuff, wuff,|her- nach ir|
 B,4 B,4 x8 | G,8 z4 D4 | E4 G4 G4 F4 | G8 z4 D4 | E4 D4 D8 | z4 G4 G4 F4 |"^-" x16 x8 |] %57
w: lie- ben|Hundt, her-|nach, ir lie- ben|Hundt, her-|nach, her- nach,|ir lie- ben||
[M:4/4]"^:""^U" x24 |[M:3/1] D16 D8 | D16 D8 | D8 D8 D8 | D16 x8 | D8 B,4 B,4 | D4 D4 D6 C2 x8 | %64
w: |Wuff, wuff,|wuff, wuff,|wuff, wuff, wuff,|wuff,|do laufft der|e- del Hirsch da-|
 B,16 x8 | z4 B,4 B,4 B,4 | G,6 A,2 B,2 C2 D6 x6 | C2 B,8 A,4 x10 |[M:3/1] B,16 z8 | D16 D8 | %70
w: her,|do laufft der|e- del * * Hirsch|* * do-|her,|wuff, wuff,|
 D8 D8 D8 | D16 x2 | z8 G,8 | D4 D4 B,8 | B,4 B,4 B,8 | z4 B,4 B,4 D6 | C2 B,8 A,4 B,16 | %77
w: wuff, wuff, wuff,|wuff,|du|hast noch recht|gu- ter Gsel,|du hast noch|* * * recht,|
 z4 D8 B,4 x4 | D8 B,4 D6 x2 | C2 B,8 A,4 x6 | B,16 x4 | z16 | z8 G,8 | z8 G,8 x4 | z4 D8 B,8 | %85
w: do- her,|do- her, do-||her,||wuff|wuff,|wuff, wuff,|
 G,6 A,2 B,6 C2 | D8 C4 D16 |[M:3/1] B,16 z8 |[M:3/1] D16 D8 | D16 D8 | D16 D8 | D4 D8 C2 B,2 x8 | %92
w: wuff, * wuff, *|* * wuff,|wuff,|kumbt her-|für mit|gros- sem|Schall, kumbt * *|
 A,8 A,8 | D8 z4 A,4 | B,4 C4 D8 x2 | B,6 C2 D4 C8 x6 | D4 E8"^-" x16 |[M:4/4]"^:""^U" x20 | %98
w: * her-|für ir|lie- ben Hundt,|ir * * lie-|ben Hundt||
[M:3/1] D16 D8 | D16 D8 | D8 D8 D8 | D8 z4 G,4 x8 | D8 D8 | B,4 B,4 B,8 | G,8 G,8 | D12 D4 | %106
w: Wuff, wuff,|wuff, wuff,|wuff, wuff, wuff,|wuff, do|laufft der|e- del Hirsch,|do- her,|trau- ter|
 D8 z4 B,8 | A,2 G,2 B,4 B,4 A,16 | z4 A,4 A,4 G,4 | F,2 E,2 F,2 G,2 A,4 A,4 | D4 E4 D8 | %111
w: Hundt, trau-|* * * ter Hundt,|do laufft der|e * * * * del|Hirsch * do-|
[M:3/1] B,16 z8 | D8 D8 D8 | A,16 D8 |[M:3/1] B,16 C8 | D16 z8 | D8 D8 D8 | D16 D8 | E8 B,8 C8 | %119
w: her,|Nun kumbt her|zu ir|Gsel- len|all,|nun kumbt her|zu ir|Gsel- * len|
 D8 z4 D4 x8 | D4 D4 A,4 D4 x8 | B,4 C4 D8 | z4 D4 D4 D4 | D4 D4 E4 C4 |"^-" x16- | x16 | %126
w: all, und|greyf- fet zu mit|rey- chem Schall,|und greyf- fet|zu mit rey *|chem||
 x12 x4 x2 |"^-" x16 x2 | x30 |] %129
w: |||
V:3
"^:" x8 ||[K:G][M:3/1][K:treble-8] G8 G8 G8 | A16 A8 | B16 G8 | A8 z8 x4 | z8 z4 G4 | A6 G2 A4 B8 | %7
w: |Wol auff, wol|auff, wol|auff, wol|auff,|wol|auff * * resch|
w: |||||||
 A4 B4 G4 A8 | z4 d4 B4 d6 | c2 A4 B4 G4 A8 | G16 | z4 d4 d4 d4 | B4 B4 G4 G4 | c8 z4 A4 | %14
w: * * und baldt,|das sein Got|* * sel- * ber|walt,|der Tag der|dringt, der Vo- gel|singt, das|
w: |||||||
 d4 d2 c2 B2 A2 B4 | G8 z8 | z16 | z16 x2 | z8 z4 d4 | d4 d2 d2 B4 B4 | G4 G4 c8 | z4 A4 d6 c2 | %22
w: al- lent * * * hal-|ben,|||ir|Rit- ter und Knecht merckt|e- ben echt,|ob ich ein|
w: ||||||||
 B4 G4 A6 G2 | F2 E2 D2 E2 F2 G2 A6 | G2 G8 F4 x4 |[M:3/1][K:treble-8] G16 z8 | A8 A8 A8 | B16 G8 | %28
w: Hirsch zu we *||* * gen|brecht,|wol auff, wol|auff, wol|
w: ||||||
 A8 z8 x8 | z8 z4 G4 x8 | A6 G2 A4 B8 | A4 B4 G4 A8 | z4 d4 B4 d6 x2 | c2 A4 B4 G4 A4 x2 | A4 x12 | %35
w: auff,|wol|auff * * resch|* * und baldt,|das sein Got|* * heut * sel-|ber|
w: |||||||
 (3:2:2G8 D4 (3:2:2E8 E4 | (3:2:2D8 G4 (3F6 E2 F4 | G8 z8 | z4 A4 d6 c2 | B4 A4 G4 F4 | %40
w: walt, wol auff, gut|Gsel, was hör * ich|do,|mich dunckt *|* es sey *|
w: |||||
 E4 D4 A4 B6 | A2 G8 F4 G8 | z8 d8 | z8 x8 | d8 B8 | G8 d8 | B8 G8 x4 | A16 | G8 z4 d4 x4 | %49
w: * * ein Hirsch|* * gantz noh,|wuff,||wuff, wuff,|wuff, wuff,|wuff, wuff,|wuff,|wuff, her-|
w: |||||||||
 d4 d4 B4 B4 | G8 z4 d4 | d4 d4 B4 B4 | G4 B4 B4 B4 | A4 d4 d4 c4 |"^-" x16 |[M:4/4]"^:""^U" x16 | %56
w: nach ir lie- ben|Hundt, her-|nach ir lie- ben|Hundt, her- nach, her-|nach ir lie- ben|||
w: |||||||
[M:3/1][K:treble-8] G16 G8 |] G16 G8 | G8 G8 G8 | G16 x8 | G8 z4 G4 x8 | G8 z8 x8 | G8 z4 G4 | %63
w: Wuff, wuff,|wuff, wuff,|wuff, wuff, wuff,|do|laufft, do|laufft,|* der|
w: ||||||laufft, *|
 D4 G4 G2 A2 B2 c2 x8 | d8 z4 D4 x8 | F4 G4 E4 E4 |[M:3/1] F16 z8 | G16 G8 | G8 G8 G8 | %69
w: e- del Hirsch , * *|* der|e- del Hirsch do-|her,|wuff, wuff,|wuff, wuff, wuff,|
w: ||||||
 G8 z4 G4 x8 | d8 B4 G4 x8 | A6 G2 E4 G4 x2 | F8 E8 | z4 E4 F4 G4 | A4 G4 G4 E4 |"^-" x16- x2 | %76
w: wuff, du|hast * *|noch * * *|* recht,|du hast noch|recht gu- ter Ge-|sel,|
w: |||||||
 x16 x14 | x12 x4 x4 | z8 z4 E4 x4 | F4 B6 A2 G2 F2 x4 | E2 D2 d8 ^c4 x4 | d8 z8 | d8 z8 | %83
w: ||do-|her, do- * * *||her,|wuff,|
w: |||||||
 d8 B8 x4 | G8 d8 x4 | B8 G8 | A16 x12 |[M:3/1] G16 z8 |[M:3/1][K:treble-8] A16 A8 | A16 A8 | %90
w: wuff, wuff,|wuff, wuff,|wuff, wuff,|wuff,|wuff,|kumbt her-|für mit|
w: |||||||
 B16 B8 | A16 x8 | z4 d8 B4 | A4 d8 c4 | B4 G4 A8 x2 |"^-" x16- x10 | x16 x12 | x16 x4 | %98
w: gros- sem|Schall,|kumbt her-|* für ir|lie- ben Hundt|al.|||
w: ||||||||
[M:4/4]"^:""^U" x24 |[M:3/1][K:treble-8] G16 G8 | G16 G8 | G8 G8 G8 |"^-" x16- | x8 x8 | z8 G8 | %105
w: |Wuff, wuff,|wuff, wuff,|wuff, wuff, wuff,|wuff,||do|
w: |||||||
 d8 d8 | B4 B4 B8 x4 | G8 G8 x12 | d12 d4 | d8 z4 d4 | d8 d8 | d12 c4 x8 | B4 c4 A8 x8 | %113
w: laufft der|e- del Hirsch|do- her,|trau- ter|Hundt, do|lauft der|e- del|Hirsch do- *|
w: ||||||||
[M:3/1] G16 z8 | G8 G8 G8 | F16 F8 |[M:3/1][K:treble-8] G16 G8 | A16 z8 | A8 A8 F8 | G16 A8 | %120
w: her,|Nun kumbt her|zu ir|Gsel- len|all,|nun kumbt her|zu ir|
w: |||||||
 B8 G16 | A8 z4 G4 | G4 G4 F4 F4 | G4 G4 A8 | z4 A4 A4 F4 | G4 A4 B4 G4 | A8 F4 A6 | %127
w: Gsel- len|all, und|greyf- fet zu mit|rey- chem Schall,|und greyf- fet|zu mit rey- chem,|mit rey- *|
w: |||||||
 G2 F2 E2 D4 d4 B4 | A2 G2 A4 A4"^-" x16 x2 |] %129
w: |* * * chem|
w: ||
V:4
"^:" x8 ||[K:G][M:3/1][K:bass] G,,8 G,,8 G,,8 | D,12 E,4 F,8 | G,16 G,8 | D,6 E,2 F,4 G,8 | %5
w: |Wol auff, wol|auff, * *|wol auff.|auff * * Jung|
 F,4 G,4 G,4 x4 | D,6 E,2 F,4 G,8 | F,4 G,4 G,4 D,8 | G,4 F,4 G,4 D,4 x2 | G,4 F,4 G,8 x6 | %10
w: * * und|alt * * resch|* * und baldt,|das sein Got *|heut * sel-|
 D,8 x8 |"^-" x16- | x16 | x12 x4 | z16 | z8 z4 G,4 | G,4 E,4 A,8 | D,4 G,8 F,4 x2 | E,4 E,4 D,8 | %19
w: ber|walt,||||das|al- lent- hal-|ben in dem|Wald er- klin-|
 G,,16 | z4 G,4 G,4 G,2 G,2 | E,4 E,4 C,4 C,4 | D,8 z4 D,4 | E,4 E,4 C,4 D,6 | %24
w: get,|Ir Rit- ter und|Knecht, merckt e- ben|recht, ob|ich ein Hir- schen|
 C,2 B,,4 A,,4 D,4 C,4 | B,,4 A,,8 x12 |[M:3/1] G,,16 G,,8 | D,12 E,4 F,8 | G,16 G,8 | %29
w: * * zu we- *|* gen|brecht, wol|auff, * wol|auff, wol|
 D,6 E,2 F,4 G,8 x4 | F,4 G,4 G,4 x8 | D,6 E,2 F,4 G,8 | F,4 G,4 G,4 D,8 | G,4 F,4 G,4 D,4 x4 | %34
w: auff * * jung|* * und|alt, * * resch|* * und baldt,|das heut Got *|
 G,4 F,4 G,8 | D,8 x8 | (3:2:2G,,8 G,,4 (3:2:2C,8 C,4 | (3:2:2B,,8 G,,4 (3:2:2A,,8 A,,4 | G,,8 z8 | %39
w: sel * *|ber|walt, wol auff gut|Gsel, was hör ich|do,|
 z8 z4 D,4 | G,6 F,2 E,4 D,4 x2 | C,4 B,,4 A,,4 G,,4 x6 | B,,4 C,4 A,,8 | G,,8 z8 | G,,8 z8 | %45
w: mich|dunckt * * es|sey ein Hirsch *|* * gantz|noh,|wuff|
 G,8 z8 | G,,8 z8 x4 | G,8 E,8 | D,16 x4 | G,,16 | z4 G,4 G,4 G,4 | E,4 E,4 D,8 | z4 G,4 G,4 G,4 | %53
w: wuff,,|wuff,|wuff, wuff,|wuff,|wuff,|her- nach ir|lie- ben Hundt,|her- nach, her-|
 E,4 G,4 G,4 G,4 | F,4 G,4 A,4 A,4 |"^-" x16 |[M:4/4]"^:""^U" x24 |][M:3/1] G,,16 G,,8 | %58
w: nach, her- nach ir|lie- * * ben|||Wuff, wuff,|
 G,,16 G,,8 | G,,8 G,,8 G,,8 | G,,16 x8 | z8 G,,8 x8 | z4 G,,4 G,,8 | z8 G,,16 | z4 G,,4 x16 | %65
w: wuff, wuff,|wuff, wuff, wuff,|wuff|wuff,|do laufft|der,|der|
 G,,2 A,,2 B,,2 C,2 D,4 B,,4 | D,4 E,4 C,8 x8 |[M:3/1] B,,16 z8 | G,,16 G,,8 | G,,8 G,,8 G,,8 | %70
w: e * * * * del|Hirsch * do-|her,|wuff, wuff,|wuff, wuff, wuff,|
 G,,24 | G,8 D,8 x2 | E,8 B,,8 | z4 G,4 x8 | D,4 E,4 B,,4 G,4 | D,4 E,4 C,8 x2 | B,,24 x6 | %77
w: wuff,|du hast|nich recht|do-|her, do- her, du|gu- * ter|Gsel,|
 D,8 B,,4 D,8 | B,,4 D,6 E,2 C,8 | B,,8 G,,4 G,8 | F,4 E,8 D,8 | z8 x8 | G,,8 z8 | G,8 z8 x4 | %84
w: do- her, do-|her du * hast|noch recht du|gu- ter Gsel,||wuff,|wuff,|
 G,,8 z8 x4 | G,8 E,8 | D,16 x12 |[M:3/1] G,,16 z8 |[M:3/1] D,16 D,8 | D,16 D,8 | G,,16 G,,8 | %91
w: wuff,|wuff, wuff,|wuff,|wuff,|kumbt her-|für mit|gros- sem|
 D,24 | z8 x8 | z4 D,6 E,2 F,4 | G,4 E,4 D,8 x2 | G,,6 A,,2 B,,4 C,8 x6 | B,,4 C,8"^-" x16 | %97
w: Schall,||ir * *|lie- * ben|Hundt * * *||
[M:4/4]"^:""^U" x20 |[M:3/1] G,,16 G,,8 | G,,16 G,,8 | G,,8 G,,8 G,,8 |"^-" x16- x8 | x16 | %103
w: |Wuff, wuff,|wuff, wuff,|wuff, wuff, wuff,|wuff,||
 x12 x4 | z8 G,8 | G,8 G,8 | G,4 G,4 G,8 x4 | G,8 G,8 x12 | D,12 D,4 | D,8 z8 | z4 D,6 E,2 F,4 | %111
w: |do|laufft der|e- del Hirsch|do- her,|trau- ter|Hundt,|do- * *|
 G,4 C,4 D,8 x8 |[M:3/1] G,,16 z8 | G,,8 G,,8 G,,8 | D,16 D,8 |[M:3/1] E,16 E,8 | D,16 z8 | %117
w: |her,|Nun kumbt her|zu ir|Gsel- len|all,|
 D,8 D,8 D,8 | G,16 F,8 | E,16 E,8 | D,8 z4 G,,4 x8 | G,,4 G,,4 D,4 D,4 | E,4 E,4 D,8 | %123
w: nun kumbt her|zu ir|Gsel- len|all, und|greyf- fet zu mit|rey- chem Schall,|
 z4 D,4 D,4 D,4 | G,4 F,4 E,4 E,4 |"^-" x16- | x16 x2 | x12 x4 x2 |"^-" x16 x14 |] %129
w: und greyf- fet|zu mit rey- chem|||||

